src/images/skill/bushcraft/beech.svg

<svg xmlns="http://www.w3.org/2000/svg" viewBox="0 0 512 512" style="height: 512px; width: 512px;"><g class="" transform="translate(0,0)" style=""><path d="M222.156 20.72c-1.423.01-2.843.065-4.25.155-20.084 1.29-37.527 10.342-46.375 27.03l17.626 12.532h-29.312c-10.333-5.256.412-.266-11.375-5.28-23.158-13.118-48.787-9.64-67.25 2.812-20.062 13.527-30.734 35.806-20.25 60.093l3.093 7.156-6.47 4.31c-21.435 14.36-32.997 30.393-37.124 48.126C16.34 195.39 19.65 215.64 31 238.5l2.47 5.03-3.25 4.564c-13.796 19.38-8.88 38.668 5.968 51.03 10.043 8.364 19.48 9.982 29.656 7.407 10.177-2.574 21.15-10.15 30.72-21.874l2.655-3.25 4.155-.187c27.728-1.2 49.69-11.635 63.97-27.72 14.28-16.085 21.22-37.98 17.718-63.906L184.03 182l7.25-2.5c8.066-2.768 14.73-8.15 18.814-15.53l5.28-9.564 8.626 6.72c6.39 4.976 22.988 8.397 31.375 5.968l10.28-2.97 1.564 10.595c4.3 29.362 24.393 52.534 50.06 60.155l8.25 2.438-1.75 8.437c-3.162 14.99 1.497 26.075 10.44 33.406 8.94 7.332 22.793 10.683 38.75 6.438l6.217-1.656 3.782 5.25c13.513 18.845 29.945 28.087 46.342 29.562 16.398 1.475 33.29-4.745 48.032-19.594 12.624-12.716 16.654-26.51 15.062-40.437-1.59-13.93-9.318-28.12-21.75-39.533l-8.5-7.812 9.406-6.688c7.878-5.6 10.74-15.92 8.907-25.5-1.833-9.58-7.527-16.677-16.345-17.78l-9.375-1.157 1.28-9.375c5.842-42.567-13.62-77.648-45.342-97.656-31.723-20.01-75.673-24.486-118.782-3.095l-6.72 3.344-4.717-5.876c-13.464-16.796-34.023-25.768-54.033-26.782-1.43-.072-2.857-.104-4.28-.093zm-1.22 160.31c-4.003 4.804-8.867 8.724-14.25 11.782 11.968 29.99 18.83 60.783 23.033 93.532-4.555 11.237-9.676 22.38-15.5 33.437l-.157.064c-8.54-19.537-18.073-38.957-31.188-55.75-.51.607-1.035 1.218-1.563 1.812-3.628 4.088-7.652 7.838-12 11.25 12.034 15.867 21.048 34.83 29.72 54.938 7.724 43.39 6.386 91.267-2.782 134.812-26.727 5.073-55.198 15.22-88.594 30.5h252.938c-32.428-15.282-60.268-25.46-86.688-30.53-13.95-24.116-21.036-50.13-23.25-76 9.692-45.174 28.504-71.692 57-99.282-19.276 7.68-37.422 17.31-52.687 31.937.702-3.41 1.488-6.766 2.31-10.092 9.476-24.123 23.87-45.82 42.94-65.407-5.784-2.705-11.25-5.994-16.283-9.874-12.71 13.552-23.555 28.128-32.312 43.78 7.156-19.187 12.88-38.422 18.063-57.592-5.443-6.556-10.03-13.933-13.563-21.938-4.167 16.03-8.512 31.946-13.5 47.72-4.637-23.334-11.12-46.08-20.375-68.47-.438-.204-.88-.41-1.313-.625z" fill="#fff" fill-opacity="1"></path></g></svg>

<svg xmlns="http://www.w3.org/2000/svg" viewBox="0 0 512 512" style="height: 512px; width: 512px;"><g class="" transform="translate(0,0)" style=""><g><path d="M222.156 20.72C220.733 20.73 219.313 20.785 217.906 20.875C197.822 22.165 180.379 31.217 171.531 47.905L189.157 60.437L159.845 60.437C149.512 55.181 160.257 60.171 148.47 55.157C125.312 42.039 99.683 45.517 81.22 57.969C61.158 71.496 50.486 93.775 60.97 118.062L64.063 125.218L57.593 129.528C36.158 143.888 24.596 159.921 20.469 177.654C16.34 195.39 19.65 215.64 31 238.5L33.47 243.53L30.22 248.094C16.424 267.474 21.34 286.762 36.188 299.124C46.231 307.488 55.668 309.106 65.844 306.531C76.021 303.957 86.994 296.381 96.564 284.657L99.219 281.407L103.374 281.22C131.102 280.02 153.064 269.585 167.344 253.5C181.624 237.415 188.564 215.52 185.062 189.594L184.03 182L191.28 179.5C199.346 176.732 206.01 171.35 210.094 163.97L215.374 154.406L224 161.126C230.39 166.102 246.988 169.523 255.375 167.094L265.655 164.124L267.219 174.719C271.519 204.081 291.612 227.253 317.279 234.874L325.529 237.312L323.779 245.749C320.617 260.739 325.276 271.824 334.219 279.155C343.159 286.487 357.012 289.838 372.969 285.593L379.186 283.937L382.968 289.187C396.481 308.032 412.913 317.274 429.31 318.749C445.708 320.224 462.6 314.004 477.342 299.155C489.966 286.439 493.996 272.645 492.404 258.718C490.814 244.788 483.086 230.598 470.654 219.185L462.154 211.373L471.56 204.685C479.438 199.085 482.3 188.765 480.467 179.185C478.634 169.605 472.94 162.508 464.122 161.405L454.747 160.248L456.027 150.873C461.869 108.306 442.407 73.225 410.685 53.217C378.962 33.207 335.012 28.731 291.903 50.122L285.183 53.466L280.466 47.59C267.002 30.794 246.443 21.822 226.433 20.808C225.003 20.736 223.576 20.704 222.153 20.715Z" class="" fill="#323f32" fill-opacity="1"></path><path d="M220.936 181.03C216.933 185.834 212.069 189.754 206.686 192.812C218.654 222.802 225.516 253.595 229.719 286.344C225.164 297.581 220.043 308.724 214.219 319.781L214.062 319.845C205.522 300.308 195.989 280.888 182.874 264.095C182.364 264.702 181.839 265.313 181.311 265.907C177.683 269.995 173.659 273.745 169.311 277.157C181.345 293.024 190.359 311.987 199.031 332.095C206.755 375.485 205.417 423.362 196.249 466.907C169.522 471.98 141.051 482.127 107.655 497.407L360.593 497.407C328.165 482.125 300.325 471.947 273.905 466.877C259.955 442.761 252.869 416.747 250.655 390.877C260.347 345.703 279.159 319.185 307.655 291.595C288.379 299.275 270.233 308.905 254.968 323.532C255.67 320.122 256.456 316.766 257.278 313.44C266.754 289.317 281.148 267.62 300.218 248.033C294.434 245.328 288.968 242.039 283.935 238.159C271.225 251.711 260.38 266.287 251.623 281.939C258.779 262.752 264.503 243.517 269.686 224.347C264.243 217.791 259.656 210.414 256.123 202.409C251.956 218.439 247.611 234.355 242.623 250.129C237.986 226.795 231.503 204.049 222.248 181.659C221.81 181.455 221.368 181.249 220.935 181.034Z" class="selected" fill="#917158" fill-opacity="1"></path></g></g></svg>
